X: 8898
T: Curlew Hills, The
R: barndance
M: 4/4
K: Gmajor
|:D2|GABc dgfa|g2 B2 d4|ceAB c2 c2|BdGA BcBA|
GABc dgfa|g2 B2 d4|ceAB cAFG|A2 G2 G2:|
|:Bc|d2 b2 c2 a2|Bggf gdBG|FGAB c2 BA|GFGA BABc|
d2 b2 c2 a2|Bggf gdBG|FGAB c>AFG|A2 G2 G2:|

